X:62
T:Albion Hornpipe. THO5.062, The
M:C|
L:1/8
R:.Hornpipe
B:Thompson's Complete Collection of 200 Favourite Dances Vol.5
F:https://www.libraryofdance.org/manuals/1780c-Thompson-Compleat-5.pdf
Z:vmp. Peter Dunk 2024
Q:1/4=140
K:Bb
(3(cBA)|B2B,2-B,2 (CD)|EFGA B2d2|cBAG FGAB|(AB/c/) C2-C2 ED|
EDEF GFGA|BABc (Bc/d/) (cB)|FBdB FAcA|B2 B2-B2:|
|:BA|Bdf2-f2 (ed)|(cB)(cd) e4|(G^FGA) (BABc)|(Bc/d/) C2-C2 ED|
EGgf edcB|ABcB AGFE|(DF)(BD) (CB)(Ac)|B2 B,2-B,2:|
W:
W:Cast off two Couples and up again ./.
W:Lead down the middle, up again and cast off ./:
W:Turn opposite corners :/.
W:Lead outsides :/:

